static/characters/uzukumari/back-sitting.svg

<svg width="160" height="182" xml:space="preserve" style="fill-rule:evenodd;clip-rule:evenodd;stroke-linejoin:round;stroke-miterlimit:1.5" xmlns="http://www.w3.org/2000/svg"><path d="m51 80.596-14 7.656 12 5.294.612 25.775-12.612 7 12.612 5.166C56.821 142.204 73.925 142.162 88 137c11.063 5.66 26.787 2.904 28-2.479l13-.521v-11l-6 .5c-.197-6.849.417-2.662 0-8.5l7 1c.364-3.908.886-7.343 1-12h-8.516c1.311-.86-.35-1.805-.984-5-2.575-11.928-16.828-20.966-23.5-19-1.27-2.812-5.235-6.399-8.5-8.94-2.171-1.689-4.475-3.359-6.5-5.06-6-4.118-13-3.659-19 0-5.866 2.851-8.773 4.373-13 14.596Z" style="fill:#fff" transform="matrix(-.99957 0 0 1.00056 167.426 -17.555)"/><path d="M100 80.364c29.709-.724 36.668 74.042-11 56.636" style="fill:none;stroke:#000;stroke-width:3px" transform="matrix(-.99957 0 0 1.00056 167.426 -17.555)"/><path d="M49.612 84.038 36.343 91l12.778 4.996" style="fill:none;stroke:#000;stroke-width:3px" transform="matrix(-.99957 0 0 1.00056 167.403 -20.553)"/><path d="M49.612 84.038 36.343 91l12.778 4.996" style="fill:none;stroke:#000;stroke-width:3px" transform="matrix(-.99957 0 0 1.00056 167.038 17.928)"/><path d="M49 102v17z" style="fill:none;stroke:#000;stroke-width:3px" transform="matrix(-.99957 0 0 1.00056 167.426 -20.056)"/><path d="M53.208 77c-.883.328 5.222-12.857 15.792-13m14 2c9.219 5.19 12.763 8.967 14 13m26 25.5h7V116" style="fill:none;stroke:#000;stroke-width:3px" transform="matrix(-.99957 0 0 1.00056 167.426 -17.555)"/><path d="M120 104.5h6v12" style="fill:none;stroke:#000;stroke-width:3px" transform="matrix(-.99957 0 0 1.00056 164.427 1.456)"/><path d="M123.514 115H129m-29-24c4.218 15.385 1.372 28.538-10 39" style="fill:none;stroke:#000;stroke-width:3px" transform="matrix(-.99957 0 0 1.00056 167.426 -17.555)"/><path d="M117 115h9" style="fill:none;stroke:#000;stroke-width:3px" transform="matrix(-.99957 0 0 1.00056 164.427 1.456)"/></svg>

<?xml version="1.0" encoding="UTF-8" standalone="no"?>
<svg
   width="160"
   height="182"
   viewBox="0 0 160 182"
   version="1.1"
   xml:space="preserve"
   style="fill-rule:evenodd;clip-rule:evenodd;stroke-linejoin:round;stroke-miterlimit:1.5;"
   id="svg39"
   sodipodi:docname="back-sitting.svg"
   inkscape:version="1.1.1 (3bf5ae0d25, 2021-09-20)"
   xmlns:inkscape="http://www.inkscape.org/namespaces/inkscape"
   xmlns:sodipodi="http://sodipodi.sourceforge.net/DTD/sodipodi-0.dtd"
   xmlns="http://www.w3.org/2000/svg"
   xmlns:svg="http://www.w3.org/2000/svg"
   xmlns:serif="http://www.serif.com/"><defs
   id="defs43" /><sodipodi:namedview
   id="namedview41"
   pagecolor="#505050"
   bordercolor="#eeeeee"
   borderopacity="1"
   inkscape:pageshadow="0"
   inkscape:pageopacity="0"
   inkscape:pagecheckerboard="0"
   showgrid="false"
   inkscape:zoom="4.456044"
   inkscape:cx="100.4254"
   inkscape:cy="90.551171"
   inkscape:window-width="958"
   inkscape:window-height="987"
   inkscape:window-x="-7"
   inkscape:window-y="0"
   inkscape:window-maximized="0"
   inkscape:current-layer="svg39" />
    <g
   transform="matrix(-0.9995703,0,0,1.000561,167.4257,-17.554541)"
   id="g37">
        <g
   id="back-standing-sitting"
   serif:id="back-standing/sitting">
            <path
   d="m 51,80.596 -14,7.656 12,5.294 0.612,25.775 -12.612,7 12.612,5.166 C 56.821,142.204 73.925,142.162 88,137 c 11.063,5.66 26.787,2.904 28,-2.479 L 129,134 v -11 l -6,0.5 c -0.197,-6.849 0.417,-2.662 0,-8.5 l 7,1 c 0.364,-3.908 0.886,-7.343 1,-12 h -8.516 c 1.311,-0.86 -0.35,-1.805 -0.984,-5 C 118.925,87.072 104.672,78.034 98,80 96.73,77.188 92.765,73.601 89.5,71.06 87.329,69.371 85.025,67.701 83,66 77,61.882 70,62.341 64,66 58.134,68.851 55.227,70.373 51,80.596 Z"
   style="fill:#ffffff"
   id="path2" />
            <path
   d="M 100,80.364 C 129.709,79.64 136.668,154.406 89,137"
   style="fill:none;stroke:#000000;stroke-width:3px"
   id="path4" />
            <g
   transform="translate(0.0225023,-2.9964)"
   id="g8">
                <path
   d="M 49.612,84.038 36.343,91 49.121,95.996"
   style="fill:none;stroke:#000000;stroke-width:3px"
   id="path6" />
            </g>
            <g
   transform="translate(0.387939,35.4622)"
   id="g12">
                <path
   d="M 49.612,84.038 36.343,91 49.121,95.996"
   style="fill:none;stroke:#000000;stroke-width:3px"
   id="path10" />
            </g>
            <g
   transform="translate(0,-2.5)"
   id="g16">
                <path
   d="m 49,102 v 17 z"
   style="fill:none;stroke:#000000;stroke-width:3px"
   id="path14" />
            </g>
            <path
   d="M 53.208,77 C 52.325,77.328 58.43,64.143 69,64"
   style="fill:none;stroke:#000000;stroke-width:3px"
   id="path18" />
            <path
   d="m 83,66 c 9.219,5.19 12.763,8.967 14,13"
   style="fill:none;stroke:#000000;stroke-width:3px"
   id="path20" />
            <path
   d="m 123,104.5 h 7 V 116"
   style="fill:none;stroke:#000000;stroke-width:3px"
   id="path22" />
            <g
   transform="translate(3,19)"
   id="g26">
                <path
   d="m 120,104.5 h 6 v 12"
   style="fill:none;stroke:#000000;stroke-width:3px"
   id="path24" />
            </g>
            <path
   d="M 123.514,115 H 129"
   style="fill:none;stroke:#000000;stroke-width:3px"
   id="path28" />
            <path
   d="m 100,91 c 4.218,15.385 1.372,28.538 -10,39"
   style="fill:none;stroke:#000000;stroke-width:3px"
   id="path30" />
            <g
   transform="translate(3,19)"
   id="g34">
                <path
   d="m 117,115 h 9"
   style="fill:none;stroke:#000000;stroke-width:3px"
   id="path32" />
            </g>
        </g>
    </g>
</svg>
